X:609
L:1/8
M:3/4
K:Emin
 BcB _B=B |: g3 BgB | g3 BgB | g2 f =f ^f2- | fBc B_B=B | f3 BfB | f3 bag | f2 e _e =e2- | 
 eBc B_B=B | e3 _e=e=f | e3 dcB | B2 A ^G A2- | AcB AGF | E3 FGA | B3 AFG | E2 G2 B2 |1 
 eBc B_B=B :|2 e z3 B2 |: baB baB | baB baB | agB agB | agB agB | gfB gfB | gfB gfB | feB feB | 
 feB feB | edB edB | edB edB | B2 A ^G A2- | AcB AGF | E3 FGA | B3 AFG | E2 G2 B2 |1 e z3 B2 :|

